src/assets/img/icons/icon_market--countdown.svg

<svg enable-background="new 0 0 50 50" viewBox="0 0 50 50" xmlns="http://www.w3.org/2000/svg"><path d="m25 960.4c-.1 0-.2 0-.2.1l-16.2 10.8c-.1.1-.2.3-.2.4 0 .2.2.3.4.3h3.9v15.4h-3.9c-.2 0-.4.2-.4.4v2.7h-.3c-.2 0-.4.2-.4.4v3.1c0 .2.2.4.4.4h33.9c.2 0 .4-.2.4-.4v-3.1c0-.2-.2-.4-.4-.4h-.4v-2.7c0-.2-.2-.4-.4-.4h-3.9v-15.4h3.9c.2 0 .3-.1.4-.3 0-.2 0-.3-.2-.4l-16.2-10.8c-.1-.1-.1-.1-.2-.1zm0 .9 14.9 9.9h-29.8zm0 3.7c-1.1 0-1.9.9-1.9 1.9 0 1.1.9 1.9 1.9 1.9s1.9-.9 1.9-1.9-.8-1.9-1.9-1.9zm0 .8c.6 0 1.2.5 1.2 1.2 0 .6-.5 1.2-1.2 1.2s-1.2-.5-1.2-1.2.6-1.2 1.2-1.2zm-11.6 6.2h2.3v15.4h-2.3zm3.1 0h3.1v15.4h-3.1zm3.9 0h2.3v15.4h-2.3zm3.1 0h3.1v15.4h-3.1zm3.8 0h2.3v15.4h-2.3zm3.1 0h3.1v15.4h-3.1zm3.8 0h2.3v15.4h-2.3zm-25 16.1h31.6v2.3h-31.6zm-.8 3.1h33.1v2.3h-33.1z" transform="translate(0 -952.36218)"/><path d="m39.9 15.4c-3 0-5.5-2.5-5.5-5.5 0-.2.1-.3.3-.3s.3.1.3.3c0 2.7 2.2 4.9 5 4.9s4.9-2.2 4.9-4.9c0-2.5-1.9-4.6-4.4-4.9-.1.2-.4.3-.6.3-.4 0-.7-.3-.7-.7s.3-.7.7-.7c.3 0 .5.2.6.4 2.8.3 4.9 2.7 4.9 5.5.1 3.2-2.4 5.6-5.5 5.6zm0-10.8c-.1 0-.1 0-.1.1s0 .1.1.1.1 0 .1-.1 0-.1-.1-.1z" fill="#010101"/><path d="m39.9 4.1c.3 0 .5.2.5.4 2.7.3 4.9 2.6 4.9 5.4 0 3-2.4 5.4-5.4 5.4s-5.4-2.4-5.4-5.4c0-.1.1-.2.2-.2s.2.1.2.2c0 2.8 2.3 5.1 5.1 5.1s5-2.3 5-5.1c0-2.6-2-4.8-4.6-5-.1.2-.3.4-.5.4-.3 0-.6-.3-.6-.6s.3-.6.6-.6m0 .8c.1 0 .2-.1.2-.2s-.1-.2-.2-.2-.2.1-.2.2.1.2.2.2m0-1c-.4 0-.8.4-.8.8s.4.8.8.8c.2 0 .5-.1.6-.3 2.4.3 4.2 2.3 4.2 4.8 0 2.7-2.2 4.8-4.8 4.8s-4.8-2.2-4.8-4.8c0-.2-.2-.4-.4-.4s-.4.2-.4.4c0 3.1 2.5 5.7 5.7 5.7s5.7-2.5 5.7-5.7c0-2.8-2.2-5.3-5-5.6-.2-.4-.5-.5-.8-.5z" fill="#fff"/><path d="m39.9 10.6c-.4 0-.7-.3-.7-.7s.3-.7.7-.7.7.3.7.7c0 .3-.3.7-.7.7zm0-.8c-.1 0-.1 0-.1.1s0 .1.1.1.1 0 .1-.1 0-.1-.1-.1z" fill="#010101"/><path d="m39.9 9.3c.3 0 .6.3.6.6s-.3.6-.6.6-.6-.3-.6-.6.3-.6.6-.6m0 .8c.1 0 .2-.1.2-.2s-.1-.2-.2-.2-.2.1-.2.2.1.2.2.2m0-1c-.4 0-.8.4-.8.8s.4.8.8.8.8-.4.8-.8-.3-.8-.8-.8z" fill="#fff"/><path d="m40.6 9.5c-.1 0-.1 0-.2-.1s-.1-.1-.1-.2 0-.1.1-.2l2.2-2.2c.1-.1.1-.1.2-.1s.1 0 .2.1.1.3 0 .4l-2.2 2.2c-.1.1-.1.1-.2.1z" fill="#010101"/><path d="m42.8 6.8h.1c.1.1.1.2 0 .3l-2.2 2.2s0 0-.1 0-.1 0-.1 0c-.1-.1-.1-.2 0-.2l2.2-2.2s.1-.1.1-.1m0-.2c-.1 0-.2 0-.3.1l-2.2 2.3c-.2.2-.2.4 0 .6.1.1.2.1.3.1s.2 0 .3-.1l2.2-2.2c.2-.2.2-.4 0-.6-.1-.2-.2-.2-.3-.2z" fill="#fff"/></svg>

<?xml version="1.0" encoding="utf-8"?>
<!-- Generator: Adobe Illustrator 21.1.0, SVG Export Plug-In . SVG Version: 6.00 Build 0)  -->
<svg version="1.1" id="Ebene_6" xmlns="http://www.w3.org/2000/svg" xmlns:xlink="http://www.w3.org/1999/xlink" x="0px" y="0px"
	 viewBox="0 0 50 50" style="enable-background:new 0 0 50 50;" xml:space="preserve">
<style type="text/css">
	.st0{fill:#010101;}
	.st1{fill:#FFFFFF;}
</style>
<g transform="translate(0,-952.36218)">
	<path d="M25,960.4c-0.1,0-0.2,0-0.2,0.1L8.6,971.3c-0.1,0.1-0.2,0.3-0.2,0.4c0,0.2,0.2,0.3,0.4,0.3h3.9v15.4H8.8
		c-0.2,0-0.4,0.2-0.4,0.4v2.7H8.1c-0.2,0-0.4,0.2-0.4,0.4v3.1c0,0.2,0.2,0.4,0.4,0.4h33.9c0.2,0,0.4-0.2,0.4-0.4v-3.1
		c0-0.2-0.2-0.4-0.4-0.4h-0.4v-2.7c0-0.2-0.2-0.4-0.4-0.4h-3.9V972h3.9c0.2,0,0.3-0.1,0.4-0.3c0-0.2,0-0.3-0.2-0.4l-16.2-10.8
		C25.1,960.4,25.1,960.4,25,960.4z M25,961.3l14.9,9.9H10.1L25,961.3z M25,965c-1.1,0-1.9,0.9-1.9,1.9c0,1.1,0.9,1.9,1.9,1.9
		s1.9-0.9,1.9-1.9C26.9,965.9,26.1,965,25,965z M25,965.8c0.6,0,1.2,0.5,1.2,1.2c0,0.6-0.5,1.2-1.2,1.2s-1.2-0.5-1.2-1.2
		C23.8,966.3,24.4,965.8,25,965.8z M13.4,972h2.3v15.4h-2.3V972z M16.5,972h3.1v15.4h-3.1V972z M20.4,972h2.3v15.4h-2.3V972z
		 M23.5,972h3.1v15.4h-3.1V972z M27.3,972h2.3v15.4h-2.3V972z M30.4,972h3.1v15.4h-3.1V972z M34.2,972h2.3v15.4h-2.3V972z
		 M9.2,988.1h31.6v2.3H9.2V988.1z M8.4,991.2h33.1v2.3H8.4V991.2z"/>
</g>
<g>
	<g>
		<path class="st0" d="M39.9,15.4c-3,0-5.5-2.5-5.5-5.5c0-0.2,0.1-0.3,0.3-0.3c0.2,0,0.3,0.1,0.3,0.3c0,2.7,2.2,4.9,5,4.9
			s4.9-2.2,4.9-4.9c0-2.5-1.9-4.6-4.4-4.9c-0.1,0.2-0.4,0.3-0.6,0.3c-0.4,0-0.7-0.3-0.7-0.7c0-0.4,0.3-0.7,0.7-0.7
			c0.3,0,0.5,0.2,0.6,0.4c2.8,0.3,4.9,2.7,4.9,5.5C45.5,13,43,15.4,39.9,15.4z M39.9,4.6c-0.1,0-0.1,0-0.1,0.1c0,0.1,0,0.1,0.1,0.1
			s0.1,0,0.1-0.1C40,4.6,40,4.6,39.9,4.6z"/>
		<path class="st1" d="M39.9,4.1c0.3,0,0.5,0.2,0.5,0.4c2.7,0.3,4.9,2.6,4.9,5.4c0,3-2.4,5.4-5.4,5.4s-5.4-2.4-5.4-5.4
			c0-0.1,0.1-0.2,0.2-0.2s0.2,0.1,0.2,0.2c0,2.8,2.3,5.1,5.1,5.1S45,12.7,45,9.9c0-2.6-2-4.8-4.6-5c-0.1,0.2-0.3,0.4-0.5,0.4
			c-0.3,0-0.6-0.3-0.6-0.6S39.6,4.1,39.9,4.1 M39.9,4.9c0.1,0,0.2-0.1,0.2-0.2c0-0.1-0.1-0.2-0.2-0.2s-0.2,0.1-0.2,0.2
			C39.7,4.8,39.8,4.9,39.9,4.9 M39.9,3.9c-0.4,0-0.8,0.4-0.8,0.8c0,0.4,0.4,0.8,0.8,0.8c0.2,0,0.5-0.1,0.6-0.3
			c2.4,0.3,4.2,2.3,4.2,4.8c0,2.7-2.2,4.8-4.8,4.8s-4.8-2.2-4.8-4.8c0-0.2-0.2-0.4-0.4-0.4s-0.4,0.2-0.4,0.4c0,3.1,2.5,5.7,5.7,5.7
			s5.7-2.5,5.7-5.7c0-2.8-2.2-5.3-5-5.6C40.5,4,40.2,3.9,39.9,3.9L39.9,3.9z"/>
	</g>
	<g>
		<path class="st0" d="M39.9,10.6c-0.4,0-0.7-0.3-0.7-0.7c0-0.4,0.3-0.7,0.7-0.7s0.7,0.3,0.7,0.7C40.6,10.2,40.3,10.6,39.9,10.6z
			 M39.9,9.8c-0.1,0-0.1,0-0.1,0.1c0,0.1,0,0.1,0.1,0.1s0.1,0,0.1-0.1C40,9.8,40,9.8,39.9,9.8z"/>
		<path class="st1" d="M39.9,9.3c0.3,0,0.6,0.3,0.6,0.6s-0.3,0.6-0.6,0.6s-0.6-0.3-0.6-0.6S39.6,9.3,39.9,9.3 M39.9,10.1
			c0.1,0,0.2-0.1,0.2-0.2s-0.1-0.2-0.2-0.2s-0.2,0.1-0.2,0.2S39.8,10.1,39.9,10.1 M39.9,9.1c-0.4,0-0.8,0.4-0.8,0.8s0.4,0.8,0.8,0.8
			s0.8-0.4,0.8-0.8S40.4,9.1,39.9,9.1L39.9,9.1z"/>
	</g>
	<g>
		<path class="st0" d="M40.6,9.5c-0.1,0-0.1,0-0.2-0.1c-0.1-0.1-0.1-0.1-0.1-0.2c0-0.1,0-0.1,0.1-0.2l2.2-2.2
			c0.1-0.1,0.1-0.1,0.2-0.1s0.1,0,0.2,0.1c0.1,0.1,0.1,0.3,0,0.4l-2.2,2.2C40.7,9.5,40.7,9.5,40.6,9.5z"/>
		<path class="st1" d="M42.8,6.8c0,0,0.1,0,0.1,0C43,6.9,43,7,42.9,7.1l-2.2,2.2c0,0,0,0-0.1,0s-0.1,0-0.1,0c-0.1-0.1-0.1-0.2,0-0.2
			l2.2-2.2C42.7,6.9,42.8,6.8,42.8,6.8 M42.8,6.6c-0.1,0-0.2,0-0.3,0.1L40.3,9c-0.2,0.2-0.2,0.4,0,0.6c0.1,0.1,0.2,0.1,0.3,0.1
			c0.1,0,0.2,0,0.3-0.1l2.2-2.2c0.2-0.2,0.2-0.4,0-0.6C43,6.6,42.9,6.6,42.8,6.6L42.8,6.6z"/>
	</g>
</g>
</svg>
